packages/core/src/svgs/tokens/mono/PPAY.svg

<svg width="24" height="24" viewBox="0 0 24 24" fill="none" xmlns="http://www.w3.org/2000/svg">
<path d="M22 10.8687L21.9812 10.825L11.9999 13.25C8.49371 12.4125 2.35624 10.9125 2.01874 10.825L2 10.8875C2.56249 5.88747 6.82497 2 11.9999 2C17.175 2 21.4373 5.87498 22 10.8687ZM21.8937 13.8312L11.9999 14.8125L2.10624 13.8249C2.23125 14.4874 2.41874 15.1187 2.65625 15.7249L11.9999 16.3749L21.3124 15.7936C21.5686 15.1687 21.7687 14.5125 21.8937 13.8312ZM20.3124 17.6374C17.5454 17.8227 14.7732 17.9228 11.9999 17.9374C9.31253 17.9124 5.56247 17.6437 3.58749 17.4875C3.91248 17.9811 4.28123 18.4437 4.69373 18.8749H19.3061C19.6738 18.4896 20.0102 18.0759 20.3124 17.6374ZM17.8687 20.1249H6.12498C7.83879 21.3494 9.89367 22.0052 11.9999 22C14.1874 22 16.2187 21.3061 17.8687 20.1249Z" fill="white"/>
</svg>

<svg xmlns="http://www.w3.org/2000/svg" width="24" height="24" fill="none" viewBox="0 0 24 24">
    <path fill="#fff" d="m22 10.869-.019-.044L12 13.25a1720 1720 0 0 1-9.981-2.425L2 10.888C2.562 5.887 6.825 2 12 2s9.437 3.875 10 8.869m-.106 2.962L12 14.813l-9.894-.988c.125.662.313 1.294.55 1.9l9.344.65 9.312-.581a10 10 0 0 0 .582-1.963m-1.582 3.806q-4.151.279-8.312.3c-2.687-.025-6.438-.293-8.413-.45a10 10 0 0 0 1.107 1.388h14.612q.553-.58 1.006-1.238m-2.443 2.488H6.125A10.06 10.06 0 0 0 12 22a10.06 10.06 0 0 0 5.869-1.875"/>
</svg>
